X:1
T:We Are Soldiers
T:We Are Soldiers
T:Carrie B. Adams
T:Carrie B. Adams, 1898
T:Public Domain Courtesy of the Cyber Hymnal™
T:Public Domain Courtesy of the Cyber Hymnal™
C:Carrie B. Adams
Z:Public Domain
Z:Courtesy of the Cyber Hymnal™
%%score ( 1 2 ) ( 3 4 )
L:1/8
Q:1/4=100
M:4/4
K:F
V:1 treble 
V:2 treble 
V:3 bass 
V:4 bass 
V:1
 C2 | F>E F>G A>G A>B | c2 [Fc]2 [Fc]2 [Bd]>[Ac] | [EG]2 [EG]2 [EG]2 [Bd]>[Ac] | %4
w: 1.~We’re|sold- iers in the ar- my of the|Lord, our king; Let us|glad- ly sing, let our|
w: 2.~We’re|march- ing with our ban- ner float- ing|in the air; See! ’tis|pure and fair, Je- sus’|
 [FA]2 [FA]2 [FA]2 C2 | F>E F>G | A>G A>B | c2 [Fc]2 [Fc]2 [Ad]>[Ac] | %8
w: voic- es ring! We’re|march- ing on to|vic- tory with our|ban- ner bright, On the|
w: name is there! And|while we’re press- ing|on- ward with our|cour- age strong, If the|
 [Ge]2 [Ge]2 [Ge]2 [EG]>[Ge] | [Fd]2 [Ec]2 [Ec]2 [EG]>[FA] | [GB]2 [GB]2 [GB][Bd][Ac][GB] | %11
w: side of right, and the|Lord’s our light! At the|call of du- ty we will|
w: way is long, cheer it|with a song. If we|strive to do our mas- ter’s|
 [FA]2 [FA]2 [FA]2 [EG]>[FA] | [GB]2 [GB]2 [GB][Bd][Ac][GB] | [GB]2 [FA]2 [FA]2 C2 | %14
w: for- ward go, With our|mas- ter, Je- sus, ’gainst the|brav- est foe; With|
w: bid- ding here, We will|win the bat- tle, trust Him,|ne- ver fear! Then|
 F>E F>G A>G A>B | c2 [Ff]2 [Ff]2 [^Ge][Gd] | [Ac]2 [FA]2 [EG]3 [CF] | [CF]6 ||"^Refrain" C2 |: %19
w: Him as our com- man- der, this we|sure- ly know, That we’ll|con- quer in His|name.|Then|
w: sing in loud ho- san- nas to that|name so dear, Glo- ri-|fy our Lord and|king!|~|
 [CF]2 [CF]2 [CF][CA][CG][CF] | [CE]2 [Ec]2 [Ec]2 C2 | [CG]2 [CG]2 [CG][CB][EA][EG] | %22
w: march, march for- ward with the|Lord, our king; Then|march, march for- ward, let us|
w: ~ ~ ~ ~ ~ ~|~ ~ ~ ~|~ ~ ~ ~ ~ ~|
 F2 [Fc]2 [Fc]2 C2 | [FA]2 [FA]2 [Fc][Fc][EB][FA] |1 [FG]2 [Fd]2 [Fd]2 [Fd]2 | %25
w: glad- ly sing; Our|watch- word “For- ward!” let our|voic- es ring! All|
w: ~ ~ ~ ~|~ ~ ~ ~ ~ ~|~ ~ ~ ~|
 [Ec]2 [Gc]2 [Fc][F=B][FA][FB] | c6 [CE]2 :|2 [FG]2 [Ff]2 [Ff]2 (ed) || [Ac][FA]F[FB] [FA]2 G2 | %29
w: faith in Je- sus Christ our|king. Then|||
w: ~ ~ ~ ~ ~ ~|~ ~|voic- es ring! All *|faith in Je- sus Christ our|
 [CF]6 |] %30
w: |
w: king!|
V:2
 C2 | F>E F>G A>G A>B | c2 x6 | x8 | x6 C2 | F>E F>G | A>G A>B | c2 x6 | x8 | x8 | x8 | x8 | x8 | %13
 x6 C2 | F>E F>G A>G A>B | c2 x6 | x8 | x6 || C2 |: x8 | x6 C2 | x8 | F2 x2 C2 x2 | x8 |1 x8 | x8 | %26
 (E2 G2 F2) x2 :|2 x6 ^G2 || x2 F x2 (EC) x | x6 |] %30
V:3
 C,2 | F,>E, F,>G, A,>G, A,>B, | C2 [F,A,]2 [F,A,]2 [F,C]>[F,C] | %3
 [C,C]2 [C,C]2 [C,C]2 [C,C]>[C,C] | [F,C]2 [F,C]2 [F,C]2 C,2 | F,>E, F,>G, | A,>G, A,>B, | %7
 C2 [F,A,]2 [F,A,]2 [^F,C]>[F,C] | [G,C]2 [G,C]2 [G,C]2 [G,C]>[G,C] | %9
 [G,=B,]2 [C,C]2 [C,C]2 [C,C]>[C,C] | [C,C]2 [E,C]2 [G,C][G,C][C,C][C,C] | %11
 [F,C]2 [F,C]2 [F,C]2 [C,C]>[C,C] | [C,C]2 [E,C]2 [G,C][G,C][C,C][C,C] | [F,C]2 [F,C]2 [F,C]2 C,2 | %14
 F,>E, F,>G, A,>G, A,>B, | C2 [A,_E]2 [B,D]2 [=B,E][B,F] | [CF]2 C2 [C,B,]3 [F,A,] | [F,A,]6 || %18
 C,2 |: [F,A,]2 [C,A,]2 [F,A,]2 [C,A,][C,A,] | [G,B,]2 [C,B,]2 [G,B,]2 C,2 | %21
 [E,B,]2 [C,B,]2 [E,B,]2 [C,B,][C,B,] | [F,A,]2 [C,A,]2 [F,A,]2 C,2 | %23
 [F,C]2 [F,C]2 [A,C][A,C][F,C][E,C] |1 [B,D]2 B,2 [G,=B,]2 [G,B,]2 | %25
 [G,C]2 [G,E]2 [G,D][G,D][G,D][G,D] | C2 (B,2 A,2) [G,B,]2 :|2 [B,D]2 [B,D]2 [B,D]2 (EF) || %28
 [CF][F,C][A,C][B,D] C2 [C,B,]2 | [F,A,]6 |] %30
V:4
 C,2 | F,>E, F,>G, A,>G, A,>B, | C2 x6 | x8 | x6 C,2 | F,>E, F,>G, | A,>G, A,>B, | C2 x6 | x8 | %9
 x8 | x8 | x8 | x8 | x6 C,2 | F,>E, F,>G, A,>G, A,>B, | C2 x6 | x2 C2 x4 | x6 || C,2 |: x8 | %20
 x6 C,2 | x8 | x6 C,2 | x8 |1 x2 =B,2 x4 | x8 | (C2 B,2) A,2 x2 :|2 x6 =B,2 || x4 C2 x2 | x6 |] %30

